X: 13672
T: Follow Me Up To Carlow
R: slide
M: 12/8
K: Gdorian
|:G2G G2F D2E F2A|G2G ABc d2c ABA|
G2G G2F D2E F2A|1 G2G A2F G3 G2F:|2 G2G A2F G3 GAc||
|:d2e f2e d2e f3|ABA A2G F2G A2c|
[1 d2e f2e d2e f3|ABA AGF G3 GAc:|
[2 d2e f2d g2e f3|ABA AGF G3 G2F||

